X: 3323
T: ROCHE HORNPIPE
R: Hornpipe.
%R: hornpipe, reel
B: James Kerr "Merry Melodies" v.3 p.35 #323
Z: 2016 John Chambers <jc:trillian.mit.edu>
M: C
L: 1/8
K: D
(uAG) |\
FDFD d2(ef) | fdfd BcdB |\
AFdF GFED | CEEE E2(DE) |\
FDGE AFBG | ABcd efge |\
fafd egec | d2d2 d2 :|
|: (fd) |\
cABc d2(fd) | cABc d2(AG) |\
FAdA GFED | CEEE E2(DE) |\
FDGE AFBG | ABcd efge |\
fafd egec | d2d2 d2 :|

%%sep 5 1 500
%%sep 1 5 500
%%text Tunes 324 - 333 are missing.

%%sep 1 1 500
%%sep 1 1 500

